rospo-icon-theme-classic-common/64x64/apps/christmas-tree.svg

<svg height="64" width="64" xmlns="http://www.w3.org/2000/svg"><path d="m32.258786 21.006126a5.5213578 5.5618986 0 0 0 -5.040969 2.77524l-7.237971 12.629787-7.240664 12.629788a5.5213578 5.5618986 0 0 0 1.68751 7.386157s6.955485 4.572902 17.573306 4.572902c10.617823 0 17.573307-4.572902 17.573307-4.572902a5.5213578 5.5618986 0 0 0 1.687514-7.386157l-7.240667-12.629788-7.237969-12.629787a5.5213578 5.5618986 0 0 0 -4.523397-2.77524z" opacity=".2"/><path d="m32.258786 20.006127a5.5213578 5.5618986 0 0 0 -5.040969 2.77524l-7.237971 12.629787-7.240664 12.629788a5.5213578 5.5618986 0 0 0 1.68751 7.386157s6.955485 4.572902 17.573306 4.572902c10.617823 0 17.573307-4.572902 17.573307-4.572902a5.5213578 5.5618986 0 0 0 1.687514-7.386157l-7.240667-12.629788-7.237969-12.629787a5.5213578 5.5618986 0 0 0 -4.523397-2.77524z" fill="#337f36"/><path d="m32.219968 16.005206a4.6931545 4.7276142 0 0 0 -4.284824 2.358953l-6.152274 10.735319-6.154565 10.735322a4.6931545 4.7276142 0 0 0 1.434383 6.278233s5.912163 3.886966 14.93731 3.886966c9.025151 0 14.937313-3.886966 14.937313-3.886966a4.6931545 4.7276142 0 0 0 1.434385-6.278233l-6.154566-10.735322-6.152274-10.735319a4.6931545 4.7276142 0 0 0 -3.844888-2.358953z" opacity=".2"/><path d="m32.219968 15.005207a4.6931545 4.7276142 0 0 0 -4.284824 2.358953l-6.152274 10.735319-6.154565 10.735322a4.6931545 4.7276142 0 0 0 1.434383 6.278233s5.912163 3.886966 14.93731 3.886966c9.025151 0 14.937313-3.886966 14.937313-3.886966a4.6931545 4.7276142 0 0 0 1.434385-6.278233l-6.154566-10.735322-6.152274-10.735319a4.6931545 4.7276142 0 0 0 -3.844888-2.358953z" fill="#3e9d43"/><path d="m32.181148 11.004305a3.8649483 3.8933268 0 0 0 -3.528675 1.942667l-5.066576 8.840844-5.068461 8.840848a3.8649483 3.8933268 0 0 0 1.181256 5.170306s4.868836 3.201029 12.301305 3.201029c7.432473 0 12.301309-3.201029 12.301309-3.201029a3.8649483 3.8933268 0 0 0 1.181258-5.170306l-5.068463-8.840848-5.066576-8.840844a3.8649483 3.8933268 0 0 0 -3.166377-1.942667z" opacity=".2"/><path d="m32.181148 10.004306a3.8649483 3.8933268 0 0 0 -3.528675 1.942667l-5.066576 8.840844-5.068461 8.840848a3.8649483 3.8933268 0 0 0 1.181256 5.170306s4.868836 3.201029 12.301305 3.201029c7.432473 0 12.301309-3.201029 12.301309-3.201029a3.8649483 3.8933268 0 0 0 1.181258-5.170306l-5.068463-8.840848-5.066576-8.840844a3.8649483 3.8933268 0 0 0 -3.166377-1.942667z" fill="#5dc062"/><path d="m31.99987 4.9998625c-.991665.014677-1.698889.633369-2.030788 1.6575359l.01238-.046187-1.558131 5.4015176h-5.254472c-.01141-.000189-.0223-.000189-.03376 0-.627475.02106-1.193264.324506-1.591893.827159-.862111 1.024965-.679387 2.224876.415366 2.989281l4.131144 3.127085-1.603145 5.158447c-.0018.0056-.0034.01141-.0051.01719-.244961.83346-.01467 1.692124.601565 2.279516.0042.0044.0096.0086.01437.01292.740445.681756 1.780815.768404 2.617004.204105.01591-.01073.03173-.02179.04706-.0333l4.238588-3.170048 4.238568 3.170048c.01532.01141.03114.02265.04706.0333.836189.564299 1.876562.477651 2.617004-.204105.0044-.0042.0096-.0085.01437-.01292.616172-.587392.846525-1.446056.601563-2.279516-.0017-.0058-.0034-.01141-.0051-.01719l-1.603239-5.158447 4.131144-3.127083c1.094754-.764407 1.277477-1.964318.415366-2.989283-.398627-.502652-.964418-.806092-1.591893-.827157-.01141-.00019-.02231-.00019-.03376 0h-5.254472l-1.558131-5.4015192.01238.046187c-.33216-1.0241673-1.039382-1.6428559-2.031048-1.6575363z" opacity=".2"/><path d="m31.99987 3.9998635c-.991665.014677-1.698889.633369-2.030788 1.6575359l.01238-.046187-1.558131 5.4015176h-5.254472c-.01141-.000189-.0223-.000189-.03376 0-.627475.02106-1.193264.324506-1.591893.827159-.862111 1.024965-.679387 2.224876.415366 2.989281l4.131144 3.127085-1.603145 5.158447c-.0018.0056-.0034.01141-.0051.01719-.244961.83346-.01467 1.692124.601565 2.279516.0042.0044.0096.0086.01437.01292.740445.681756 1.780815.768404 2.617004.204105.01591-.01073.03173-.02179.04706-.0333l4.238588-3.170048 4.238568 3.170048c.01532.01141.03114.02265.04706.0333.836189.564299 1.876562.477651 2.617004-.204105.0044-.0042.0096-.0085.01437-.01292.616172-.587392.846525-1.446056.601563-2.279516-.0017-.0058-.0034-.01141-.0051-.01719l-1.603239-5.158447 4.131144-3.127083c1.094754-.764407 1.277477-1.964318.415366-2.989283-.398627-.502652-.964418-.806092-1.591893-.827157-.01141-.00019-.02231-.00019-.03376 0h-5.254472l-1.558131-5.4015192.01238.046187c-.33216-1.0241673-1.039382-1.6428559-2.031048-1.6575363z" fill="#ae3030"/><path d="m28 32.999999a3.0000002 3.0000002 0 0 1 -3 3 3.0000002 3.0000002 0 0 1 -3-3 3.0000002 3.0000002 0 0 1 3-3.000001 3.0000002 3.0000002 0 0 1 3 3.000001z" opacity=".2"/><path d="m28 32a3.0000002 3.0000002 0 0 1 -3 3 3.0000002 3.0000002 0 0 1 -3-3 3.0000002 3.0000002 0 0 1 3-3.000001 3.0000002 3.0000002 0 0 1 3 3.000001z" fill="#ffe15e"/><path d="m44 41.999998a3.0000002 3.0000002 0 0 1 -3 3.000001 3.0000002 3.0000002 0 0 1 -3-3.000001 3.0000002 3.0000002 0 0 1 3-3 3.0000002 3.0000002 0 0 1 3 3z" opacity=".2"/><path d="m44 40.999999a3.0000002 3.0000002 0 0 1 -3 3.000001 3.0000002 3.0000002 0 0 1 -3-3.000001 3.0000002 3.0000002 0 0 1 3-3 3.0000002 3.0000002 0 0 1 3 3z" fill="#ffe15e"/><path d="m28 54.999999a3.0000002 3.0000002 0 0 1 -3 3 3.0000002 3.0000002 0 0 1 -3-3 3.0000002 3.0000002 0 0 1 3-3 3.0000002 3.0000002 0 0 1 3 3z" opacity=".2"/><path d="m28 54a3.0000002 3.0000002 0 0 1 -3 3 3.0000002 3.0000002 0 0 1 -3-3 3.0000002 3.0000002 0 0 1 3-3 3.0000002 3.0000002 0 0 1 3 3z" fill="#ffe15e"/><path d="m37 31.500018a1.5000001 1.5000001 0 0 1 -1.5 1.5 1.5000001 1.5000001 0 0 1 -1.5-1.5 1.5000001 1.5000001 0 0 1 1.5-1.500001 1.5000001 1.5000001 0 0 1 1.5 1.500001z" opacity=".2"/><path d="m37 30.500019a1.5000001 1.5000001 0 0 1 -1.5 1.5 1.5000001 1.5000001 0 0 1 -1.5-1.5 1.5000001 1.5000001 0 0 1 1.5-1.500001 1.5000001 1.5000001 0 0 1 1.5 1.500001z" fill="#ffe15e"/><path d="m31 45.50001a1.4999996 1.4999996 0 0 1 -1.500001 1.499999 1.4999996 1.4999996 0 0 1 -1.499999-1.499999 1.4999996 1.4999996 0 0 1 1.499999-1.500001 1.4999996 1.4999996 0 0 1 1.500001 1.500001z" opacity=".2"/><path d="m31 44.500011a1.4999996 1.4999996 0 0 1 -1.500001 1.499999 1.4999996 1.4999996 0 0 1 -1.499999-1.499999 1.4999996 1.4999996 0 0 1 1.499999-1.500001 1.4999996 1.4999996 0 0 1 1.500001 1.500001z" fill="#ffe15e"/><path d="m40 54.499999a1.5000001 1.5000001 0 0 1 -1.5 1.5 1.5000001 1.5000001 0 0 1 -1.5-1.5 1.5000001 1.5000001 0 0 1 1.5-1.5 1.5000001 1.5000001 0 0 1 1.5 1.5z" opacity=".2"/><path d="m40 53.5a1.5000001 1.5000001 0 0 1 -1.5 1.5 1.5000001 1.5000001 0 0 1 -1.5-1.5 1.5000001 1.5000001 0 0 1 1.5-1.5 1.5000001 1.5000001 0 0 1 1.5 1.5z" fill="#ffe15e"/><path d="m22 41.499999a1.5000001 1.5000001 0 0 1 -1.5 1.5 1.5000001 1.5000001 0 0 1 -1.5-1.5 1.5000001 1.5000001 0 0 1 1.5-1.5 1.5000001 1.5000001 0 0 1 1.5 1.5z" opacity=".2"/><path d="m22 40.5a1.5000001 1.5000001 0 0 1 -1.5 1.5 1.5000001 1.5000001 0 0 1 -1.5-1.5 1.5000001 1.5000001 0 0 1 1.5-1.5 1.5000001 1.5000001 0 0 1 1.5 1.5z" fill="#ffe15e"/><path d="m48.999991 50.499999a1.5000001 1.5000001 0 0 1 -1.5 1.5 1.5000001 1.5000001 0 0 1 -1.5-1.5 1.5000001 1.5000001 0 0 1 1.5-1.5 1.5000001 1.5000001 0 0 1 1.5 1.5z" opacity=".2"/><path d="m48.999991 49.5a1.5000001 1.5000001 0 0 1 -1.5 1.5 1.5000001 1.5000001 0 0 1 -1.5-1.5 1.5000001 1.5000001 0 0 1 1.5-1.5 1.5000001 1.5000001 0 0 1 1.5 1.5z" fill="#ffe15e"/><path d="m32 4c-.991665.014677-1.699351.6340362-2.03125 1.6582031l-1.544922 5.3554689h-5.255859c-.01141-.000189-.021743-.000189-.033203 0-.627475.02106-1.193168.323519-1.591797.826172-.498602.592788-.635616 1.242253-.460938 1.833984.084672-.282348.234453-.564716.460938-.833984.398629-.502653.964322-.805112 1.591797-.826172.01146-.000189.021793-.000189.033203 0h5.255859l1.544922-5.3554689c.331899-1.0241669 1.039585-1.6435261 2.03125-1.6582031.991666.0146804 1.69909.6340358 2.03125 1.6582031l1.544922 5.3554689h5.255859c.01145-.00019.021793-.00019.033203 0 .627475.021065 1.19317.32352 1.591797.826172.226485.269268.376266.551636.460938.833984.174678-.591731.037664-1.241196-.460938-1.833984-.398627-.502652-.964322-.805107-1.591797-.826172-.01141-.00019-.021753-.00019-.033203 0h-5.255859l-1.544922-5.3554689c-.33216-1.0241673-1.039584-1.6435227-2.03125-1.6582031zm-6.162109 14.765625-1.351563 4.349609c-.0018.0056-.002206.011799-.003906.017578-.117933.401256-.121706.80569-.029297 1.185547.012983-.06203.011112-.123673.029297-.185547.0017-.00578.002106-.011978.003906-.017578l1.603516-5.158203zm12.324218 0-.251953.191406 1.603516 5.158203c.0017.00578.004159.011778.005859.017578.017604.059897.014616.119641.027344.179688.090971-.378244.090005-.780418-.027344-1.179688-.0017-.0058-.004159-.011798-.005859-.017578z" fill="#fff" opacity=".2"/></svg>

<svg xmlns="http://www.w3.org/2000/svg" width="64" height="64" version="1">
 <path d="m 32.258786,21.006126 a 5.5213578,5.5618986 0 0 0 -5.040969,2.77524 l -7.237971,12.629787 -7.240664,12.629788 a 5.5213578,5.5618986 0 0 0 1.68751,7.386157 c 0,0 6.955485,4.572902 17.573306,4.572902 10.617823,0 17.573307,-4.572902 17.573307,-4.572902 a 5.5213578,5.5618986 0 0 0 1.687514,-7.386157 L 44.020152,36.411153 36.782183,23.781366 a 5.5213578,5.5618986 0 0 0 -4.523397,-2.77524 z" style="opacity:0.2"/>
 <path style="fill:#337f36" d="m 32.258786,20.006127 a 5.5213578,5.5618986 0 0 0 -5.040969,2.77524 l -7.237971,12.629787 -7.240664,12.629788 a 5.5213578,5.5618986 0 0 0 1.68751,7.386157 c 0,0 6.955485,4.572902 17.573306,4.572902 10.617823,0 17.573307,-4.572902 17.573307,-4.572902 a 5.5213578,5.5618986 0 0 0 1.687514,-7.386157 L 44.020152,35.411154 36.782183,22.781367 a 5.5213578,5.5618986 0 0 0 -4.523397,-2.77524 z"/>
 <path style="opacity:0.2" d="m 32.219968,16.005206 a 4.6931545,4.7276142 0 0 0 -4.284824,2.358953 L 21.78287,29.099478 15.628305,39.8348 a 4.6931545,4.7276142 0 0 0 1.434383,6.278233 c 0,0 5.912163,3.886966 14.93731,3.886966 9.025151,0 14.937313,-3.886966 14.937313,-3.886966 A 4.6931545,4.7276142 0 0 0 48.371696,39.8348 L 42.21713,29.099478 36.064856,18.364159 a 4.6931545,4.7276142 0 0 0 -3.844888,-2.358953 z"/>
 <path d="M 32.219968,15.005207 A 4.6931545,4.7276142 0 0 0 27.935144,17.36416 L 21.78287,28.099479 15.628305,38.834801 a 4.6931545,4.7276142 0 0 0 1.434383,6.278233 c 0,0 5.912163,3.886966 14.93731,3.886966 9.025151,0 14.937313,-3.886966 14.937313,-3.886966 a 4.6931545,4.7276142 0 0 0 1.434385,-6.278233 L 42.21713,28.099479 36.064856,17.36416 a 4.6931545,4.7276142 0 0 0 -3.844888,-2.358953 z" style="fill:#3e9d43"/>
 <path d="m 32.181148,11.004305 a 3.8649483,3.8933268 0 0 0 -3.528675,1.942667 l -5.066576,8.840844 -5.068461,8.840848 a 3.8649483,3.8933268 0 0 0 1.181256,5.170306 c 0,0 4.868836,3.201029 12.301305,3.201029 7.432473,0 12.301309,-3.201029 12.301309,-3.201029 a 3.8649483,3.8933268 0 0 0 1.181258,-5.170306 l -5.068463,-8.840848 -5.066576,-8.840844 a 3.8649483,3.8933268 0 0 0 -3.166377,-1.942667 z" style="opacity:0.2"/>
 <path style="fill:#5dc062" d="m 32.181148,10.004306 a 3.8649483,3.8933268 0 0 0 -3.528675,1.942667 l -5.066576,8.840844 -5.068461,8.840848 a 3.8649483,3.8933268 0 0 0 1.181256,5.170306 c 0,0 4.868836,3.201029 12.301305,3.201029 7.432473,0 12.301309,-3.201029 12.301309,-3.201029 a 3.8649483,3.8933268 0 0 0 1.181258,-5.170306 l -5.068463,-8.840848 -5.066576,-8.840844 a 3.8649483,3.8933268 0 0 0 -3.166377,-1.942667 z"/>
 <path d="m 31.99987,4.9998625 c -0.991665,0.014677 -1.698889,0.633369 -2.030788,1.6575359 l 0.01238,-0.046187 -1.558131,5.4015176 -5.254472,0 c -0.01141,-1.89e-4 -0.0223,-1.89e-4 -0.03376,0 -0.627475,0.02106 -1.193264,0.324506 -1.591893,0.827159 -0.862111,1.024965 -0.679387,2.224876 0.415366,2.989281 l 4.131144,3.127085 -1.603145,5.158447 c -0.0018,0.0056 -0.0034,0.01141 -0.0051,0.01719 -0.244961,0.83346 -0.01467,1.692124 0.601565,2.279516 0.0042,0.0044 0.0096,0.0086 0.01437,0.01292 0.740445,0.681756 1.780815,0.768404 2.617004,0.204105 0.01591,-0.01073 0.03173,-0.02179 0.04706,-0.0333 l 4.238588,-3.170048 4.238568,3.170048 c 0.01532,0.01141 0.03114,0.02265 0.04706,0.0333 0.836189,0.564299 1.876562,0.477651 2.617004,-0.204105 0.0044,-0.0042 0.0096,-0.0085 0.01437,-0.01292 0.616172,-0.587392 0.846525,-1.446056 0.601563,-2.279516 -0.0017,-0.0058 -0.0034,-0.01141 -0.0051,-0.01719 l -1.603239,-5.158447 4.131144,-3.127083 c 1.094754,-0.764407 1.277477,-1.964318 0.415366,-2.989283 -0.398627,-0.502652 -0.964418,-0.806092 -1.591893,-0.827157 -0.01141,-1.9e-4 -0.02231,-1.9e-4 -0.03376,0 l -5.254472,0 -1.558131,-5.4015192 0.01238,0.046187 C 33.698758,5.6332315 32.991536,5.0145429 31.99987,4.9998625 Z" style="opacity:0.2"/>
 <path style="fill:#ae3030" d="m 31.99987,3.9998635 c -0.991665,0.014677 -1.698889,0.633369 -2.030788,1.6575359 l 0.01238,-0.046187 -1.558131,5.4015176 -5.254472,0 c -0.01141,-1.89e-4 -0.0223,-1.89e-4 -0.03376,0 -0.627475,0.02106 -1.193264,0.324506 -1.591893,0.827159 -0.862111,1.024965 -0.679387,2.224876 0.415366,2.989281 l 4.131144,3.127085 -1.603145,5.158447 c -0.0018,0.0056 -0.0034,0.01141 -0.0051,0.01719 -0.244961,0.83346 -0.01467,1.692124 0.601565,2.279516 0.0042,0.0044 0.0096,0.0086 0.01437,0.01292 0.740445,0.681756 1.780815,0.768404 2.617004,0.204105 0.01591,-0.01073 0.03173,-0.02179 0.04706,-0.0333 l 4.238588,-3.170048 4.238568,3.170048 c 0.01532,0.01141 0.03114,0.02265 0.04706,0.0333 0.836189,0.564299 1.876562,0.477651 2.617004,-0.204105 0.0044,-0.0042 0.0096,-0.0085 0.01437,-0.01292 0.616172,-0.587392 0.846525,-1.446056 0.601563,-2.279516 -0.0017,-0.0058 -0.0034,-0.01141 -0.0051,-0.01719 l -1.603239,-5.158447 4.131144,-3.127083 c 1.094754,-0.764407 1.277477,-1.964318 0.415366,-2.989283 -0.398627,-0.502652 -0.964418,-0.806092 -1.591893,-0.827157 -0.01141,-1.9e-4 -0.02231,-1.9e-4 -0.03376,0 l -5.254472,0 -1.558131,-5.4015192 0.01238,0.046187 C 33.698758,4.6332325 32.991536,4.0145439 31.99987,3.9998635 Z"/>
 <path d="m 28,32.999999 a 3.0000002,3.0000002 0 0 1 -3,3 3.0000002,3.0000002 0 0 1 -3,-3 3.0000002,3.0000002 0 0 1 3,-3.000001 3.0000002,3.0000002 0 0 1 3,3.000001 z" style="opacity:0.2"/>
 <path style="fill:#ffe15e" d="M 28,32 A 3.0000002,3.0000002 0 0 1 25,35 3.0000002,3.0000002 0 0 1 22,32 3.0000002,3.0000002 0 0 1 25,28.999999 3.0000002,3.0000002 0 0 1 28,32 Z"/>
 <path style="opacity:0.2" d="m 44,41.999998 a 3.0000002,3.0000002 0 0 1 -3,3.000001 3.0000002,3.0000002 0 0 1 -3,-3.000001 3.0000002,3.0000002 0 0 1 3,-3 3.0000002,3.0000002 0 0 1 3,3 z"/>
 <path d="M 44,40.999999 A 3.0000002,3.0000002 0 0 1 41,44 a 3.0000002,3.0000002 0 0 1 -3,-3.000001 3.0000002,3.0000002 0 0 1 3,-3 3.0000002,3.0000002 0 0 1 3,3 z" style="fill:#ffe15e"/>
 <path d="m 28,54.999999 a 3.0000002,3.0000002 0 0 1 -3,3 3.0000002,3.0000002 0 0 1 -3,-3 3.0000002,3.0000002 0 0 1 3,-3 3.0000002,3.0000002 0 0 1 3,3 z" style="opacity:0.2"/>
 <path style="fill:#ffe15e" d="m 28,54 a 3.0000002,3.0000002 0 0 1 -3,3 3.0000002,3.0000002 0 0 1 -3,-3 3.0000002,3.0000002 0 0 1 3,-3 3.0000002,3.0000002 0 0 1 3,3 z"/>
 <path style="opacity:0.2" d="m 37,31.500018 a 1.5000001,1.5000001 0 0 1 -1.5,1.5 1.5000001,1.5000001 0 0 1 -1.5,-1.5 1.5000001,1.5000001 0 0 1 1.5,-1.500001 1.5000001,1.5000001 0 0 1 1.5,1.500001 z"/>
 <path d="m 37,30.500019 a 1.5000001,1.5000001 0 0 1 -1.5,1.5 1.5000001,1.5000001 0 0 1 -1.5,-1.5 1.5000001,1.5000001 0 0 1 1.5,-1.500001 1.5000001,1.5000001 0 0 1 1.5,1.500001 z" style="fill:#ffe15e"/>
 <path d="M 31,45.50001 A 1.4999996,1.4999996 0 0 1 29.499999,47.000009 1.4999996,1.4999996 0 0 1 28,45.50001 1.4999996,1.4999996 0 0 1 29.499999,44.000009 1.4999996,1.4999996 0 0 1 31,45.50001 Z" style="opacity:0.2"/>
 <path style="fill:#ffe15e" d="M 31,44.500011 A 1.4999996,1.4999996 0 0 1 29.499999,46.00001 1.4999996,1.4999996 0 0 1 28,44.500011 1.4999996,1.4999996 0 0 1 29.499999,43.00001 1.4999996,1.4999996 0 0 1 31,44.500011 Z"/>
 <path style="opacity:0.2" d="m 40,54.499999 a 1.5000001,1.5000001 0 0 1 -1.5,1.5 1.5000001,1.5000001 0 0 1 -1.5,-1.5 1.5000001,1.5000001 0 0 1 1.5,-1.5 1.5000001,1.5000001 0 0 1 1.5,1.5 z"/>
 <path d="M 40,53.5 A 1.5000001,1.5000001 0 0 1 38.5,55 1.5000001,1.5000001 0 0 1 37,53.5 1.5000001,1.5000001 0 0 1 38.5,52 1.5000001,1.5000001 0 0 1 40,53.5 Z" style="fill:#ffe15e"/>
 <path style="opacity:0.2" d="m 22,41.499999 a 1.5000001,1.5000001 0 0 1 -1.5,1.5 1.5000001,1.5000001 0 0 1 -1.5,-1.5 1.5000001,1.5000001 0 0 1 1.5,-1.5 1.5000001,1.5000001 0 0 1 1.5,1.5 z"/>
 <path d="M 22,40.5 A 1.5000001,1.5000001 0 0 1 20.5,42 1.5000001,1.5000001 0 0 1 19,40.5 1.5000001,1.5000001 0 0 1 20.5,39 1.5000001,1.5000001 0 0 1 22,40.5 Z" style="fill:#ffe15e"/>
 <path d="m 48.999991,50.499999 a 1.5000001,1.5000001 0 0 1 -1.5,1.5 1.5000001,1.5000001 0 0 1 -1.5,-1.5 1.5000001,1.5000001 0 0 1 1.5,-1.5 1.5000001,1.5000001 0 0 1 1.5,1.5 z" style="opacity:0.2"/>
 <path style="fill:#ffe15e" d="m 48.999991,49.5 a 1.5000001,1.5000001 0 0 1 -1.5,1.5 1.5000001,1.5000001 0 0 1 -1.5,-1.5 1.5000001,1.5000001 0 0 1 1.5,-1.5 1.5000001,1.5000001 0 0 1 1.5,1.5 z"/>
 <path style="fill:#ffffff;opacity:0.2" d="M 32 4 C 31.008335 4.014677 30.300649 4.6340362 29.96875 5.6582031 L 28.423828 11.013672 L 23.167969 11.013672 C 23.156559 11.013483 23.146226 11.013483 23.134766 11.013672 C 22.507291 11.034732 21.941598 11.337191 21.542969 11.839844 C 21.044367 12.432632 20.907353 13.082097 21.082031 13.673828 C 21.166703 13.39148 21.316484 13.109112 21.542969 12.839844 C 21.941598 12.337191 22.507291 12.034732 23.134766 12.013672 C 23.146226 12.013483 23.156559 12.013483 23.167969 12.013672 L 28.423828 12.013672 L 29.96875 6.6582031 C 30.300649 5.6340362 31.008335 5.014677 32 5 C 32.991666 5.0146804 33.69909 5.6340358 34.03125 6.6582031 L 35.576172 12.013672 L 40.832031 12.013672 C 40.843481 12.013482 40.853824 12.013482 40.865234 12.013672 C 41.492709 12.034737 42.058404 12.337192 42.457031 12.839844 C 42.683516 13.109112 42.833297 13.39148 42.917969 13.673828 C 43.092647 13.082097 42.955633 12.432632 42.457031 11.839844 C 42.058404 11.337192 41.492709 11.034737 40.865234 11.013672 C 40.853824 11.013482 40.843481 11.013482 40.832031 11.013672 L 35.576172 11.013672 L 34.03125 5.6582031 C 33.69909 4.6340358 32.991666 4.0146804 32 4 z M 25.837891 18.765625 L 24.486328 23.115234 C 24.484528 23.120834 24.484122 23.127033 24.482422 23.132812 C 24.364489 23.534068 24.360716 23.938502 24.453125 24.318359 C 24.466108 24.256329 24.464237 24.194686 24.482422 24.132812 C 24.484122 24.127032 24.484528 24.120834 24.486328 24.115234 L 26.089844 18.957031 L 25.837891 18.765625 z M 38.162109 18.765625 L 37.910156 18.957031 L 39.513672 24.115234 C 39.515372 24.121014 39.517831 24.127012 39.519531 24.132812 C 39.537135 24.192709 39.534147 24.252453 39.546875 24.3125 C 39.637846 23.934256 39.63688 23.532082 39.519531 23.132812 C 39.517831 23.127012 39.515372 23.121014 39.513672 23.115234 L 38.162109 18.765625 z"/>
</svg>
